X: 2058
T: No Apples
R: reel
C: Rick Gagne: 1992 on whistle
M: 4/4
Q: 1/4=175
K: Bm
fe | "Bm"dB~B2 Bcde | fB~B2 BAFB | "A"AE~E2 ABcd | eA~A2 "F#m"eAfA | 
"Bm"dB~B2 Bcde | fb~b2 bafb | "A"ae~e2 "G"dfec | "Em7"dfec "Bm"B2 :|
dc | "Bm"Bdcd "G5"edcd | "Bm"BF~F2 dcBd | "A"cA~A2 ABcd | eA~A2 "F#m"fedc | 
"Bm"Bdcd "G5"edcd | "Bm"BF~F2 dcBd | "A"cA~A2 "F#m"fece | "Em7"dBcA "Bm"B2 :|
